X: 10992
M: 2/4
L: 1/16
K: G
d2 |\
(^cd.e.d) (fg.a.g) | (b4 g2)g2 | a2a2 (agab) | g2(bg) d2d2 |\
(^cd).e.d (fg).a.g | (b4 g2)g2 | a2a2 agab | g2b2g2 H|]
(gf) !f!|\
(e^d).e.f (gf).g.e | .f2.b2.f2.b2 | (e^d).e.f (gf).g.e | .f2.B2.^d2.B2 |\
(e^d).e.f (gf).g.e | .f2.b2.f2.b2 | (ag).f.e (^dB).^c.d | (f4 "^D.C."e2) |]
!p!(BA) |\


